images/roofs-material-type/copper.svg

<svg width="120" height="120" viewBox="0 0 120 120" fill="none" xmlns="http://www.w3.org/2000/svg">
<path d="M27.55 82.3L27.89 83.32L27.61 82.48L27.55 82.3ZM93.62 36.93L93.49 36.55L93.89 37.76L93.62 36.93ZM94.83 40.54L93.89 37.76L94.63 39.92L94.83 40.54ZM99.39 54.01L99.23 53.56L100.02 55.87L99.39 54.01ZM83.05 86.77L83.63 88.51L82.6 85.47L83.05 86.77ZM39.49 56.91L37.67 51.55L37.02 49.61L24.79 74.14L26.89 80.38L39.13 55.85L39.49 56.91ZM92.9 34.83L93.49 36.55L89.16 23.73H69.91L81.41 57.86L92.9 34.83ZM58.63 89.54H65.61L76.56 67.59L77.28 69.7L77.83 71.34L70.86 50.72L61.74 23.73H61.25L46.45 53.42L58.63 89.54ZM55.14 23.73H49.92L41.88 39.86L43.98 46.11L55.14 23.73ZM29.94 28.66L28.27 23.73H7.75L17.71 53.19L29.94 28.66ZM83.78 64.88L87.18 74.95L98.67 51.9L96.15 44.44L95.33 42.02L83.78 64.88ZM97.8 89.54L105.9 73.29L104.78 69.95L94.84 89.54H97.8ZM32.84 89.54H50.51L41.6 63.15L29.36 87.68L30.88 92.18L32.15 89.94C32.2184 89.8174 32.3186 89.7155 32.44 89.6451C32.5615 89.5747 32.6996 89.5384 32.84 89.54ZM111.4 89.54L107.17 77.03L100.82 89.54H111.4ZM79.9 89.54L82.33 84.67L80.94 80.54L78.32 72.79L78.9 74.52L71.31 89.54H79.9ZM41.56 54.43L40.52 51.33L39.81 49.23L41.93 44.96L43.85 50.65L43.69 50.16L42.64 47.07L41.93 44.96L41.3 43.1L39.86 38.82L39.83 38.72L37.7 42.98L37.36 41.96L42.11 56.06L41.56 54.43ZM39.12 36.61L37.53 31.91L39.39 37.41L39.12 36.61Z" fill="#F9BE77"/>
<path d="M112.76 91.12H33.3L32.14 93.15H113.26L113.38 92.94L113.9 92.02L114.41 91.12H113.59H112.76ZM30.69 21.89H30.59L30.63 22.01L30.69 21.89ZM42.27 56.54L53.4 89.54H56.96L44.4 52.27L42.27 56.54ZM85.47 74.81L84.13 70.85L81.72 63.7L79.58 67.92L80.73 71.34L83 78.07L85.13 73.81L85.47 74.81ZM79.88 58.24L80.08 58.83L80.38 59.74L79.88 58.24ZM64.41 22.94L64.68 23.73L69.62 38.39L77.24 60.98L79.36 56.72L68.24 23.73L67.98 22.94L67.71 22.16L67.62 21.89H64.06L64.15 22.16L64.41 22.94Z" fill="#F9BE77"/>
<path d="M41.17 37.75L41.43 38.52L41.88 39.86L49.92 23.73H36.44L40.53 35.86L41.17 37.75ZM37.01 49.59L36.31 47.5L30.65 30.77L29.94 28.66L17.71 53.19L17.84 53.57L18.38 55.18L18.42 55.3L24.07 72.03L24.79 74.14L37.02 49.61L37.01 49.59ZM56.9 23.73H55.14L43.98 46.11L44.7 48.22L45.74 51.31L46.45 53.42L61.25 23.73H59.49H56.9ZM39.84 57.95L39.49 56.91L39.13 55.85L26.89 80.38L26.99 80.66L27.55 82.3L27.61 82.48L27.89 83.32L28.65 85.57L29.36 87.68L41.59 63.15L40.88 61.04L39.84 57.95ZM83.05 86.77L82.6 85.47L82.33 84.67L79.9 89.54H83.98L83.63 88.51L83.05 86.77ZM104.07 67.86L100.02 55.87L99.39 54.01L99.23 53.56L98.67 51.9L87.18 74.95L87.74 76.62L87.89 77.06L88.84 79.89L92.09 89.54H94.84L104.78 69.95L104.07 67.86ZM105.9 73.29L97.8 89.54H100.82L107.17 77.03L105.9 73.29ZM82.13 59.97L82.23 60.27L83.07 62.78L83.78 64.88L95.33 42.02L94.63 39.92L93.62 36.93L92.9 34.83L81.41 57.86L82.03 59.69L82.13 59.97ZM78.19 72.42L77.83 71.34L77.28 69.7L76.56 67.59L65.61 89.54H71.31L78.9 74.52L78.32 72.79L78.19 72.42ZM30.95 22.94L31.21 23.73L31.34 24.12L32.59 27.82L36.99 40.87L37.32 41.85L37.36 41.96L37.7 42.98L39.83 38.72L39.39 37.41L39.12 36.61L37.53 31.91L34.78 23.73L34.51 22.94L34.24 22.16L34.16 21.89H30.69L30.63 22.01L30.68 22.16L30.95 22.94ZM43.69 50.16L42.64 47.07L41.93 44.96L39.81 49.23L40.52 51.33L41.56 54.43L42.11 56.06L42.27 56.54L44.4 52.27L43.85 50.65L43.69 50.16ZM85.84 75.92L85.57 75.14L85.47 74.81L85.13 73.81L83 78.07L83.71 80.18L86.87 89.54H90.43L90.42 89.51L85.84 75.92ZM81.41 62.78L81.12 61.92L81.01 61.6L80.38 59.74L80.08 58.83L79.88 58.24L79.36 56.72L77.24 60.98L77.95 63.09L78.5 64.74L78.87 65.83L79.19 66.78L79.58 67.92L81.72 63.7L81.41 62.78Z" fill="#FBD3A4"/>
<path d="M116.45 89.93C116.38 89.8114 116.281 89.7131 116.162 89.6447C116.043 89.5763 115.907 89.5402 115.77 89.54H113.06L90.47 22.69C90.4158 22.5345 90.3144 22.3998 90.1799 22.3048C90.0455 22.2098 89.8847 22.1592 89.72 22.16H69.38L68.94 20.85C68.8862 20.6935 68.7852 20.5575 68.6509 20.4607C68.5165 20.364 68.3555 20.3114 68.19 20.31H62.93C62.8574 20.2949 62.7826 20.2949 62.71 20.31H62.57L62.48 20.37L62.39 20.46V20.56C62.3694 20.5912 62.3526 20.6248 62.34 20.66L61.87 21.98H35.91L35.47 20.67C35.4162 20.5135 35.3152 20.3775 35.1809 20.2807C35.0465 20.184 34.8855 20.1314 34.72 20.13H29.46C29.3874 20.1149 29.3126 20.1149 29.24 20.13H29.11L29.02 20.19L28.94 20.28L28.86 20.42L28.39 21.74H6.65C6.5197 21.7377 6.39141 21.7724 6.28 21.84L6.17 21.92C6.17 21.97 6.05 22 6.01 22.06C5.97 22.12 6.01 22.06 6.01 22.11L4.89 24.11C4.83628 24.2067 4.80322 24.3135 4.79289 24.4237C4.78256 24.5339 4.7952 24.645 4.83 24.75L28.83 95.75C28.8838 95.9065 28.9848 96.0425 29.1191 96.1393C29.2535 96.236 29.4145 96.2886 29.58 96.29H112.6C112.739 96.2898 112.875 96.2526 112.994 96.1823C113.114 96.112 113.212 96.0111 113.28 95.89L114.4 93.89L116.4 90.29C116.444 90.1754 116.461 90.0522 116.45 89.93ZM89.16 23.73L96.22 44.63L98.67 51.9L99.23 53.56L100.02 55.87L104.02 67.87L104.72 69.96L105.85 73.3L107.17 77L111.4 89.51H92.09L88.84 79.86L87.84 77.03L87.69 76.59L87.18 75L83.78 64.91L83.07 62.82L82.23 60.31L82.13 60.01L82.03 59.73L81.41 57.9L69.91 23.73H89.16ZM64.06 21.89H67.62L67.71 22.16L67.98 22.94L68.24 23.73L79.36 56.73L79.54 57.24L80.85 61.14L81.01 61.61L81.12 61.93L81.41 62.79L85.41 74.79L85.52 75.11L85.79 75.89L90.37 89.48H86.87L83.71 80.12L83 78.07L80.73 71.34L79.19 66.78L78.87 65.78L78.5 64.69L70 39.49L64.68 23.73L64.41 22.94L64.15 22.16L64.06 21.89ZM48.16 23.73H61.74L70.86 50.73L77.86 71.35L78.23 72.43L78.35 72.8L80.97 80.55L82.36 84.68L82.63 85.48L83.63 88.48L83.98 89.48H58.63L46.45 53.42L45.74 51.31L44.69 48.22L44 46.11L41.9 39.86L41.45 38.52L41.19 37.75L40.55 35.86L36.44 23.73H48.16ZM30.59 21.89H34.16L34.24 22.16L34.51 22.94L34.78 23.73L37.53 31.91L39.39 37.41L39.82 38.69V38.79L41.27 43.07L43.81 50.62L44.36 52.24L57 89.54H53.4L42.27 56.54L42.13 56.12L41 52.61L37.36 42V41.9L37.27 41.65L37 40.87L32.75 28.28L32.25 26.81L31.25 23.73L31 22.94L30.73 22.16L30.66 21.93L30.59 21.89ZM28.27 23.73L29.94 28.66L30.65 30.77L36.31 47.5L37.01 49.59L39.49 56.91L39.84 57.91L40.84 61L41.56 63.11L50.47 89.5H32.84C32.6996 89.4984 32.5614 89.5347 32.44 89.6051C32.3186 89.6755 32.2184 89.7774 32.15 89.9L30.88 92.14L29.36 87.64L28.65 85.53L27.89 83.28L27.54 82.28L27 80.66L26.9 80.38L24.8 74.14L24.07 72L18.42 55.3V55.18L17.88 53.57L7.75 23.73H28.27ZM113.9 92L113.38 92.92L113.26 93.13H32.14L33.3 91.13H114.41L113.9 92Z" fill="#F6931D"/>
</svg>

<svg height="120" width="120" xmlns="http://www.w3.org/2000/svg"><g fill="none"><path d="m30.533 21.979.946-.324.324.945-.946.325zm.097.031-.04-.12z" fill="#95cad2"/><g fill="#a2d1d8"><path d="m31.34 24.12 1.25 3.7z"/><path d="m31.34 24.12 1.41 4.16-.16-.46zm-.664-1.953.948-.32.32.948-.949.32z"/><path d="m31.21 23.73-.26-.79.16.49zm.01.014.947-.32.32.948-.948.32zm-.11-.314.1.3z"/></g><path d="m27.55 82.3.34 1.02-.28-.84zm66.07-45.37-.13-.38.4 1.21zm1.21 3.61-.94-2.78.74 2.16zm4.56 13.47-.16-.45.79 2.31zm-16.34 32.76.58 1.74-1.03-3.04zm-43.56-29.86-1.82-5.36-.65-1.94-.01-.02.01.02-12.23 24.53 2.1 6.24 12.24-24.53zm53.41-22.08.59 1.72-4.33-12.82h-19.25l11.5 34.13zm-34.27 54.71h6.98l10.95-21.95.72 2.11.55 1.64-6.97-20.62-9.12-26.99h-.49l-14.8 29.69zm-3.49-65.81h-5.22l-8.04 16.13 2.1 6.25zm-25.2 4.93-1.67-4.93h-20.52l9.96 29.46.13.38-.13-.38zm53.84 36.22 3.4 10.07 11.49-23.05-2.52-7.46-.82-2.42-.5-1.48.5 1.48zm14.02 24.66 8.1-16.25-1.12-3.34-9.94 19.59zm-64.96 0h17.67l-8.91-26.39-12.24 24.53 1.52 4.5 1.27-2.24a.78.78 0 0 1 .69-.4zm78.56 0-4.23-12.51-6.35 12.51zm-31.5 0 2.43-4.87-1.39-4.13-2.62-7.75.58 1.73-7.59 15.02zm-38.34-35.11-1.04-3.1-.71-2.1 2.12-4.27 1.92 5.69-.16-.49-1.05-3.09-.71-2.11-.63-1.86-1.44-4.28-.03-.1-2.13 4.26-.34-1.02 4.75 14.1zm-2.44-17.82-1.59-4.7 1.86 5.5z" fill="#f9be77"/><path d="m112.76 91.12h-79.46l-1.16 2.03h81.12l.12-.21.52-.92.51-.9h-.82zm-82.07-69.23h-.1l.04.12zm11.58 34.65 11.13 33h3.56l-12.56-37.27zm43.2 18.27-1.34-3.96-2.41-7.15-.31-.92.31.92-2.14 4.22 1.15 3.42 2.27 6.73 2.13-4.26zm-5.59-16.57.2.59.3.91zm-15.47-35.3.27.79 4.94 14.66 7.62 22.59 2.12-4.26-11.12-32.99-.26-.79-.27-.78-.09-.27h-3.56l.09.27z" fill="#f9be77"/><path d="m41.17 37.75.26.77.45 1.34 8.04-16.13h-13.48l4.09 12.13zm-4.16 11.84-.7-2.09-5.66-16.73-.71-2.11-12.23 24.53.13.38.54 1.61.04.12 5.65 16.73.72 2.11 12.23-24.53zm19.89-25.86h-1.76l-11.16 22.38.72 2.11 1.04 3.09.71 2.11 14.8-29.69h-1.76zm-17.06 34.22-.35-1.04-.36-1.06-12.24 24.53.1.28.56 1.64.06.18.28.84.76 2.25.71 2.11 12.23-24.53-.71-2.11zm43.21 28.82-.45-1.3-.27-.8-2.43 4.87h4.08l-.35-1.03zm21.02-18.91-4.05-11.99-.63-1.86-.16-.45-.56-1.66-11.49 23.05.56 1.67.15.44.95 2.83 3.25 9.65h2.75l9.94-19.59zm1.83 5.43-8.1 16.25h3.02l6.35-12.51zm-23.77-13.32.1.3.84 2.51.71 2.1 11.55-22.86-.7-2.1-1.01-2.99-.72-2.1-11.49 23.03.62 1.83zm-3.94 12.45-.36-1.08-.55-1.64-.72-2.11-10.95 21.95h5.7l7.59-15.02-.58-1.73zm-47.24-49.48.26.79.13.39 1.25 3.7 4.4 13.05.33.98.04.11.34 1.02 2.13-4.26-.44-1.31-.27-.8-1.59-4.7-2.75-8.18-.27-.79-.27-.78-.08-.27h-3.47l-.06.12.05.15zm12.74 27.22-1.05-3.09-.71-2.11-2.12 4.27.71 2.1 1.04 3.1.55 1.63.16.48 2.13-4.27-.55-1.62zm42.15 25.76-.27-.78-.1-.33-.34-1-2.13 4.26.71 2.11 3.16 9.36h3.56l-.01-.03zm-4.43-13.14-.29-.86-.11-.32-.63-1.86-.3-.91-.2-.59-.52-1.52-2.12 4.26.71 2.11.55 1.65.37 1.09.32.95.39 1.14 2.14-4.22z" fill="#fbd3a4"/><path d="m116.45 89.93a.79.79 0 0 0 -.68-.39h-2.71l-22.59-66.85a.79.79 0 0 0 -.75-.53h-20.34l-.44-1.31a.8.8 0 0 0 -.75-.54h-5.26a.54.54 0 0 0 -.22 0h-.14l-.09.06-.09.09v.1a.47.47 0 0 0 -.05.1l-.47 1.32h-25.96l-.44-1.31a.8.8 0 0 0 -.75-.54h-5.26a.54.54 0 0 0 -.22 0h-.13l-.09.06-.08.09-.08.14-.47 1.32h-21.74a.69.69 0 0 0 -.37.1l-.11.08c0 .05-.12.08-.16.14s0 0 0 .05l-1.12 2a.8.8 0 0 0 -.06.64l24 71a.8.8 0 0 0 .75.54h83.02a.78.78 0 0 0 .68-.4l1.12-2 2-3.6a.8.8 0 0 0 .05-.36zm-27.29-66.2 7.06 20.9 2.45 7.27.56 1.66.79 2.31 4 12 .7 2.09 1.13 3.34 1.32 3.7 4.23 12.51h-19.31l-3.25-9.65-1-2.83-.15-.44-.51-1.59-3.4-10.09-.71-2.09-.84-2.51-.1-.3-.1-.28-.62-1.83-11.5-34.17zm-25.1-1.84h3.56l.09.27.27.78.26.79 11.12 33 .18.51 1.31 3.9.16.47.11.32.29.86 4 12 .11.32.27.78 4.58 13.59h-3.5l-3.16-9.36-.71-2.05-2.27-6.73-1.54-4.56-.32-1-.37-1.09-8.5-25.2-5.32-15.76-.27-.79-.26-.78-.09-.27zm-15.9 1.84h13.58l9.12 27 7 20.62.37 1.08.12.37 2.62 7.75 1.39 4.13.27.8 1 3 .35 1h-25.35l-12.18-36.06-.71-2.11-1.05-3.09-.69-2.11-2.1-6.25-.45-1.34-.26-.77-.64-1.89-4.11-12.13zm-17.57-1.84h3.57l.08.27.27.78.27.79 2.75 8.18 1.86 5.5.43 1.28v.1l1.45 4.28 2.54 7.55.55 1.62 12.64 37.3h-3.6l-11.13-33-.14-.42-1.13-3.51-3.64-10.61v-.1l-.09-.25-.27-.78-4.25-12.59-.5-1.47-1-3.08-.25-.79-.27-.78-.07-.23zm-2.32 1.84 1.67 4.93.71 2.11 5.66 16.73.7 2.09 2.48 7.32.35 1 1 3.09.72 2.11 8.91 26.39h-17.63a.78.78 0 0 0 -.69.4l-1.27 2.24-1.52-4.5-.71-2.11-.76-2.25-.35-1-.54-1.62-.1-.28-2.1-6.24-.73-2.14-5.65-16.7v-.12l-.54-1.61-10.13-29.84zm85.63 68.27-.52.92-.12.21h-81.12l1.16-2h81.11z" fill="#f6931d"/><g fill="#9ecfd6"><path d="m77.24 60.98-7.62-22.59.37 1.1 8.51 25.25-.55-1.65zm1.95 5.8 1.54 4.56-1.15-3.42zm-15.13-44.89.09.27z"/><path d="m64.68 23.73 5.31 15.76-.37-1.1zm-.528-1.565.948-.32.32.948-.948.32z"/><path d="m64.42 22.957.949-.32.319.948-.948.32zm16.31 48.383 2.27 6.73zm2.98 8.84 3.16 9.36zm-5.21-15.44.37 1.09zm.37 1.09.32.95z"/></g></g></svg>
